;FLAVOR:UltiGCode
;TIME:1101
;MATERIAL:1788
;MATERIAL2:0
;NOZZLE_DIAMETER:0.4
;MINX:102.665
;MINY:102.182
;MINZ:0.27
;MAXX:120.818
;MAXY:120.818
;MAXZ:15.87
;Generated with Cura_SteamEngine 4.8.0
M82 ;absolute extrusion mode
G0 F3000 Y50 ;avoid prime blob
G92 E0
G92 E0
G10
;LAYER_COUNT:105
;LAYER:0
M107
G0 F4500 X102.665 Y105.248 Z0.27
;TYPE:SUPPORT
G11
G1 F1800 X102.809 Y105.248 E0.01361
G1 X102.81 Y117.751 E1.19514
G1 X102.665 Y117.751 E1.20884
G1 X102.665 Y105.248 E2.39038
G0 F4500 X106.692 Y107.124
G1 F1800 X106.835 Y106.923 E2.41369
G1 X107.018 Y106.757 E2.43704
G1 X107.233 Y106.635 E2.4604
G1 X107.467 Y106.562 E2.48356
G1 X107.71 Y106.543 E2.5066
G1 X107.956 Y106.576 E2.53005
G1 X108.19 Y106.661 E2.55358
G1 X108.398 Y106.793 E2.57686
G1 X108.576 Y106.971 E2.60065
G1 X108.711 Y107.178 E2.624
G1 X108.791 Y107.395 E2.64586
G1 X108.829 Y107.701 E2.67499
G1 X108.811 Y107.893 E2.69322
G1 X108.738 Y108.13 E2.71665
G1 X108.615 Y108.35 E2.74047
G1 X108.446 Y108.538 E2.76436
G1 X108.252 Y108.678 E2.78697
G1 X108.024 Y108.776 E2.81042
G1 X107.783 Y108.823 E2.83362
G1 X107.535 Y108.817 E2.85707
G1 X107.29 Y108.756 E2.88093
G1 X107.071 Y108.649 E2.90396
G1 X106.878 Y108.495 E2.92729
G1 X106.721 Y108.298 E2.9511
G1 X106.615 Y108.088 E2.97333
G1 X106.553 Y107.843 E2.99721
G1 X106.547 Y107.597 E3.02046
G1 X106.593 Y107.354 E3.04384
G1 X106.692 Y107.124 E3.0675
G0 F4500 X106.761 Y107.318
G1 F1800 X108.614 Y107.318 E3.24261
G0 F4500 X107.318 Y106.755
G1 F1800 X107.318 Y108.613 E3.41819
G0 F4500 X108.707 Y102.81
G1 F1800 X108.707 Y102.182 E3.47753
G1 X114.294 Y102.182 E4.00551
G1 X114.293 Y102.809 E4.06476
G1 X108.707 Y102.81 E4.59263
G0 F4500 X108.847 Y102.652
G1 F1800 X114.153 Y102.652 E5.09405
G0 F4500 X111.984 Y102.67
G1 F1800 X111.984 Y102.322 E5.12694
G0 F4500 X109.651 Y102.322
G1 F1800 X109.651 Y102.67 E5.15982
G0 F4500 X114.461 Y106.924
G1 F1800 X114.647 Y106.757 E5.18345
G1 X114.862 Y106.635 E5.20681
G1 X115.096 Y106.562 E5.22997
G1 X115.34 Y106.543 E5.2531
G1 X115.59 Y106.577 E5.27694
G1 X115.815 Y106.658 E5.29954
G1 X116.027 Y106.793 E5.32329
G1 X116.205 Y106.971 E5.34708
G1 X116.338 Y107.176 E5.37017
G1 X116.42 Y107.399 E5.39262
G1 X116.459 Y107.697 E5.42103
G1 X116.439 Y107.897 E5.44002
G1 X116.369 Y108.127 E5.46274
G1 X116.242 Y108.353 E5.48724
G1 X116.077 Y108.536 E5.51052
G1 X115.882 Y108.677 E5.53326
G1 X115.651 Y108.777 E5.55705
G1 X115.413 Y108.823 E5.57996
G1 X115.164 Y108.817 E5.60349
G1 X114.919 Y108.756 E5.62735
G1 X114.7 Y108.649 E5.65039
G1 X114.51 Y108.497 E5.67338
G1 X114.348 Y108.297 E5.6977
G1 X114.244 Y108.085 E5.72002
G1 X114.182 Y107.843 E5.74363
G1 X114.176 Y107.596 E5.76697
G1 X114.222 Y107.351 E5.79053
G1 X114.32 Y107.122 E5.81407
G1 X114.461 Y106.924 E5.83704
G0 F4500 X114.389 Y107.318
G1 F1800 X116.241 Y107.318 E6.01205
G0 F4500 X112.363 Y110.755
G1 F1800 X112.492 Y110.955 E6.03454
G1 X112.579 Y111.191 E6.05831
G1 X112.613 Y111.436 E6.08169
G1 X112.594 Y111.682 E6.105
G1 X112.525 Y111.907 E6.12724
G1 X112.396 Y112.136 E6.15208
G1 X112.236 Y112.314 E6.1747
G1 X112.034 Y112.46 E6.19825
G1 X111.806 Y112.559 E6.22174
G1 X111.568 Y112.605 E6.24465
G1 X111.32 Y112.599 E6.26809
G1 X111.075 Y112.538 E6.29195
G1 X110.856 Y112.431 E6.31499
G1 X110.662 Y112.276 E6.33845
G1 X110.506 Y112.08 E6.36212
G1 X110.4 Y111.87 E6.38435
G1 X110.338 Y111.625 E6.40824
G1 X110.332 Y111.378 E6.43158
G1 X110.378 Y111.132 E6.45523
G1 X110.476 Y110.903 E6.47877
G1 X110.616 Y110.707 E6.50153
G1 X110.803 Y110.539 E6.52529
G1 X111.018 Y110.417 E6.54865
G1 X111.252 Y110.344 E6.57181
G1 X111.498 Y110.324 E6.59514
G1 X111.746 Y110.358 E6.61879
G1 X111.969 Y110.439 E6.64121
G1 X112.184 Y110.576 E6.66531
G1 X112.363 Y110.755 E6.68923
G0 F4500 X111.984 Y110.615
G1 F1800 X111.984 Y112.323 E6.85063
G0 F4500 X112.322 Y111.984
G1 F1800 X110.614 Y111.984 E7.01204
G0 F4500 X108.402 Y114.425
G1 F1800 X108.573 Y114.595 E7.03483
G1 X108.712 Y114.81 E7.05902
G1 X108.791 Y115.025 E7.08067
G1 X108.829 Y115.33 E7.10971
G1 X108.811 Y115.522 E7.12793
G1 X108.738 Y115.763 E7.15173
G1 X108.616 Y115.979 E7.17517
G1 X108.451 Y116.162 E7.19846
G1 X108.25 Y116.308 E7.22194
G1 X108.022 Y116.407 E7.24543
G1 X107.78 Y116.453 E7.2687
G1 X107.535 Y116.447 E7.29186
G1 X107.289 Y116.386 E7.31581
G1 X107.073 Y116.28 E7.33855
G1 X106.877 Y116.123 E7.36228
G1 X106.724 Y115.933 E7.38534
G1 X106.612 Y115.709 E7.409
G1 X106.553 Y115.474 E7.4319
G1 X106.547 Y115.226 E7.45534
G1 X106.593 Y114.983 E7.47871
G1 X106.692 Y114.753 E7.50238
G1 X106.835 Y114.552 E7.52569
G1 X107.015 Y114.389 E7.54864
G1 X107.235 Y114.264 E7.57255
G1 X107.47 Y114.191 E7.5958
G1 X107.71 Y114.172 E7.61855
G1 X107.951 Y114.205 E7.64154
G1 X108.194 Y114.293 E7.66596
G1 X108.402 Y114.425 E7.68924
G0 F4500 X107.736 Y114.317
G1 F1800 X107.651 Y114.317 E7.69727
G0 F4500 X107.318 Y114.385
G1 F1800 X107.318 Y116.244 E7.87295
G0 F4500 X112.468 Y120.193
G1 F1800 X118.347 Y120.192 E8.42852
G1 X118.347 Y120.818 E8.48767
G1 X112.752 Y120.818 E9.0164
G1 X112.753 Y120.479 E9.04844
G1 X112.468 Y120.193 E9.08659
G0 F4500 X114.317 Y120.332
G1 F1800 X114.317 Y120.678 E9.11929
G0 F4500 X116.65 Y120.678
G1 F1800 X116.65 Y120.332 E9.15198
G0 F4500 X115.652 Y116.407
G1 F1800 X115.412 Y116.453 E9.17508
G1 X115.164 Y116.447 E9.19852
G1 X114.918 Y116.386 E9.22247
G1 X114.702 Y116.28 E9.24521
G1 X114.507 Y116.123 E9.26887
G1 X114.353 Y115.933 E9.29198
G1 X114.241 Y115.709 E9.31565
G1 X114.182 Y115.474 E9.33854
G1 X114.176 Y115.225 E9.36208
G1 X114.222 Y114.98 E9.38564
G1 X114.32 Y114.751 E9.40918
G1 X114.461 Y114.553 E9.43215
G1 X114.644 Y114.389 E9.45537
G1 X114.864 Y114.264 E9.47928
G1 X115.099 Y114.191 E9.50253
G1 X115.339 Y114.172 E9.52528
G1 X115.59 Y114.206 E9.54922
G1 X115.821 Y114.291 E9.57248
G1 X116.028 Y114.421 E9.59558
G1 X116.202 Y114.595 E9.61883
G1 X116.338 Y114.806 E9.64256
G1 X116.42 Y115.03 E9.6651
G1 X116.46 Y115.332 E9.69389
G1 X116.441 Y115.521 E9.71184
G1 X116.369 Y115.756 E9.73506
G1 X116.242 Y115.982 E9.75956
G1 X116.081 Y116.161 E9.78231
G1 X115.875 Y116.31 E9.80634
G1 X115.652 Y116.407 E9.82932
G0 F4500 X115.372 Y114.317
G1 F1800 X115.27 Y114.317 E9.83896
G0 F4500 X120.191 Y112.47
G1 F1800 X120.478 Y112.757 E9.87731
G1 X120.818 Y112.757 E9.90944
G1 X120.818 Y118.334 E10.43647
G1 X120.192 Y118.332 E10.49563
G1 X120.191 Y112.47 E11.04959
G0 F4500 X120.331 Y114.317
G1 F1800 X120.678 Y114.317 E11.08238
G0 F4500 X120.678 Y116.65
G1 F1800 X120.331 Y116.65 E11.11517
G10
;MESH:Saunders1M_Dice.stl
G0 F4500 X118.816 Y116.65
G0 X118.643 Y118.717
G0 X118.642 Y118.817
;TYPE:WALL-INNER
G11
G1 F1800 X106.839 Y118.818 E12.23055
G1 X104.185 Y118.815 E12.48136
G1 X104.184 Y104.185 E13.86389
G1 X118.814 Y104.184 E15.24643
G1 X118.817 Y118.642 E16.61271
G1 X118.817 Y118.817 E16.62924
G1 X118.642 Y118.817 E16.63995
G0 F4500 X118.643 Y118.717
G0 X117.942 Y115.307
G0 X117.843 Y115.308
G1 F1800 X117.766 Y114.703 E16.69758
G1 X117.576 Y114.188 E16.74945
G1 X117.28 Y113.729 E16.80107
G1 X116.893 Y113.342 E16.85279
G1 X116.431 Y113.051 E16.90439
G1 X115.92 Y112.864 E16.95581
G1 X115.379 Y112.79 E17.00741
G1 X114.834 Y112.834 E17.05908
G1 X114.311 Y112.996 E17.11082
G1 X113.837 Y113.266 E17.16237
G1 X113.431 Y113.631 E17.21396
G1 X113.114 Y114.076 E17.26559
G1 X112.899 Y114.577 E17.31711
G1 X112.796 Y115.114 E17.36878
G1 X112.812 Y115.661 E17.4205
G1 X112.944 Y116.19 E17.47202
G1 X113.189 Y116.68 E17.52379
G1 X113.532 Y117.105 E17.5754
G1 X113.959 Y117.446 E17.62704
G1 X114.448 Y117.687 E17.67856
G1 X114.978 Y117.817 E17.73013
G1 X115.524 Y117.833 E17.78175
G1 X116.062 Y117.728 E17.83355
G1 X116.563 Y117.511 E17.88514
G1 X117.005 Y117.191 E17.93671
G1 X117.369 Y116.784 E17.98831
G1 X117.637 Y116.307 E18.04001
G1 X117.794 Y115.791 E18.09098
G1 X117.843 Y115.308 E18.13686
G0 F4500 X117.942 Y115.307
G0 X117.611 Y114.171
G0 X116.917 Y113.311
G0 X115.929 Y112.826
G0 X114.827 Y112.795
G0 X113.814 Y113.234
G0 X110.235 Y114.68
G0 X110.138 Y114.703
G1 F1800 X109.946 Y114.188 E18.1888
G1 X109.651 Y113.729 E18.24036
G1 X109.264 Y113.343 E18.29201
G1 X108.802 Y113.05 E18.34371
G1 X108.289 Y112.864 E18.39528
G1 X107.75 Y112.79 E18.44669
G1 X107.205 Y112.834 E18.49836
G1 X106.682 Y112.996 E18.5501
G1 X106.208 Y113.266 E18.60165
G1 X105.801 Y113.631 E18.65332
G1 X105.485 Y114.077 E18.70497
G1 X105.271 Y114.577 E18.75636
G1 X105.167 Y115.114 E18.80805
G1 X105.183 Y115.661 E18.85977
G1 X105.315 Y116.19 E18.91129
G1 X105.56 Y116.68 E18.96306
G1 X105.902 Y117.105 E19.01461
G1 X106.33 Y117.446 E19.06633
G1 X106.819 Y117.687 E19.11784
G1 X107.349 Y117.817 E19.16941
G1 X107.895 Y117.833 E19.22103
G1 X108.431 Y117.728 E19.27265
G1 X108.934 Y117.511 E19.32442
G1 X109.376 Y117.191 E19.37598
G1 X109.74 Y116.784 E19.42758
G1 X110.008 Y116.307 E19.47929
G1 X110.165 Y115.79 E19.53035
G1 X110.213 Y115.308 E19.57612
G1 X110.138 Y114.703 E19.63373
G0 F4500 X110.235 Y114.68
G0 X109.063 Y112.356
G0 X108.913 Y111.264
G0 X109.235 Y110.21
G0 X109.97 Y109.387
G0 X111.538 Y108.842
G0 X111.536 Y108.941
G1 F1800 X110.99 Y108.987 E19.68551
G1 X110.467 Y109.148 E19.73722
G1 X109.993 Y109.419 E19.78882
G1 X109.893 Y109.509 E19.80153
G1 X109.586 Y109.784 E19.84048
G1 X109.506 Y109.896 E19.85349
G1 X109.269 Y110.229 E19.89211
G1 X109.055 Y110.731 E19.94368
G1 X108.952 Y111.267 E19.99526
G1 X108.968 Y111.813 E20.04688
G1 X109.1 Y112.343 E20.0985
G1 X109.345 Y112.832 E20.15018
G1 X109.687 Y113.258 E20.20181
G1 X110.115 Y113.599 E20.25352
G1 X110.604 Y113.839 E20.305
G1 X111.134 Y113.97 E20.35659
G1 X111.68 Y113.984 E20.4082
G1 X112.215 Y113.88 E20.45971
G1 X112.719 Y113.663 E20.51156
G1 X113.161 Y113.343 E20.56313
G1 X113.525 Y112.936 E20.61473
G1 X113.792 Y112.46 E20.6663
G1 X113.951 Y111.938 E20.71787
G1 X113.995 Y111.394 E20.76945
G1 X113.92 Y110.852 E20.82115
G1 X113.73 Y110.34 E20.87276
G1 X113.435 Y109.882 E20.92424
G1 X113.049 Y109.496 E20.97583
G1 X112.587 Y109.203 E21.02753
G1 X112.076 Y109.016 E21.07895
G1 X111.536 Y108.941 E21.13047
G0 F4500 X111.538 Y108.842
G0 X110.235 Y107.05
G0 X110.138 Y107.073
G1 F1800 X109.946 Y106.557 E21.1825
G1 X109.65 Y106.1 E21.23395
G1 X109.264 Y105.714 E21.28554
G1 X108.802 Y105.421 E21.33724
G1 X108.289 Y105.234 E21.38884
G1 X107.75 Y105.16 E21.44025
G1 X107.205 Y105.205 E21.49193
G1 X106.682 Y105.366 E21.54364
G1 X106.208 Y105.637 E21.59524
G1 X105.801 Y106.002 E21.6469
G1 X105.485 Y106.448 E21.69855
G1 X105.271 Y106.948 E21.74995
G1 X105.167 Y107.485 E21.80164
G1 X105.183 Y108.031 E21.85326
G1 X105.315 Y108.561 E21.90487
G1 X105.56 Y109.05 E21.95656
G1 X105.902 Y109.476 E22.00818
G1 X106.33 Y109.817 E22.0599
G1 X106.819 Y110.057 E22.11137
G1 X107.349 Y110.188 E22.16296
G1 X107.896 Y110.202 E22.21467
G1 X108.431 Y110.098 E22.26618
G1 X108.932 Y109.881 E22.31777
G1 X109.264 Y109.643 E22.35637
G1 X109.376 Y109.563 E22.36854
G1 X109.65 Y109.256 E22.40487
G1 X109.74 Y109.155 E22.41765
G1 X110.008 Y108.678 E22.46935
G1 X110.165 Y108.161 E22.52041
G1 X110.213 Y107.678 E22.56628
G1 X110.138 Y107.073 E22.62389
G0 F4500 X110.235 Y107.05
G0 X114.296 Y105.33
G0 X115.38 Y105.121
G0 X116.448 Y105.386
G0 X117.31 Y106.075
G0 X117.863 Y107.05
G0 X117.766 Y107.073
G1 F1800 X117.575 Y106.558 E22.6758
G1 X117.279 Y106.1 E22.72733
G1 X116.893 Y105.714 E22.77892
G1 X116.431 Y105.421 E22.83062
G1 X115.92 Y105.234 E22.88204
G1 X115.379 Y105.16 E22.93364
G1 X114.834 Y105.205 E22.98532
G1 X114.311 Y105.366 E23.03703
G1 X113.836 Y105.637 E23.08871
G1 X113.431 Y106.002 E23.14023
G1 X113.114 Y106.447 E23.19186
G1 X112.899 Y106.948 E23.24338
G1 X112.796 Y107.485 E23.29505
G1 X112.812 Y108.031 E23.34667
G1 X112.944 Y108.561 E23.39829
G1 X113.189 Y109.05 E23.44997
G1 X113.532 Y109.476 E23.50166
G1 X113.959 Y109.817 E23.5533
G1 X114.448 Y110.057 E23.60477
G1 X114.978 Y110.188 E23.65637
G1 X115.525 Y110.202 E23.70807
G1 X116.062 Y110.098 E23.75976
G1 X116.561 Y109.881 E23.81119
G1 X117.005 Y109.563 E23.86279
G1 X117.369 Y109.155 E23.91446
G1 X117.637 Y108.678 E23.96617
G1 X117.794 Y108.162 E24.01714
G1 X117.843 Y107.678 E24.06311
G1 X117.766 Y107.073 E24.12074
G0 F4500 X117.516 Y107.682
;TYPE:WALL-OUTER
G1 F1800 X117.448 Y107.151 E24.17133
G1 X117.283 Y106.704 E24.21636
G1 X117.025 Y106.305 E24.26126
G1 X116.689 Y105.969 E24.30617
G1 X116.287 Y105.714 E24.35115
G1 X115.841 Y105.551 E24.39603
G1 X115.37 Y105.487 E24.44094
G1 X114.896 Y105.526 E24.48589
G1 X114.441 Y105.666 E24.53088
G1 X114.028 Y105.902 E24.57583
G1 X113.675 Y106.22 E24.62073
G1 X113.399 Y106.607 E24.66564
G1 X113.212 Y107.044 E24.71056
G1 X113.122 Y107.511 E24.75551
G1 X113.136 Y107.986 E24.80041
G1 X113.251 Y108.448 E24.84541
G1 X113.464 Y108.873 E24.89033
G1 X113.763 Y109.244 E24.93536
G1 X114.134 Y109.541 E24.98027
G1 X114.56 Y109.75 E25.02511
G1 X115.022 Y109.864 E25.07008
G1 X115.498 Y109.876 E25.11507
G1 X115.965 Y109.786 E25.16002
G1 X116.4 Y109.597 E25.20484
G1 X116.786 Y109.32 E25.24973
G1 X117.103 Y108.965 E25.29471
G1 X117.336 Y108.55 E25.33969
G1 X117.474 Y108.098 E25.38435
G1 X117.516 Y107.682 E25.42386
G0 F4500 X117.491 Y107.484
G0 X117.913 Y107.432
G0 X117.833 Y108.169
G0 X117.401 Y109.178
G0 X116.58 Y109.915
G0 X115.528 Y110.241
G0 X114.435 Y110.094
G0 X113.504 Y109.504
G0 X111.492 Y108.845
G0 X111.527 Y109.268
G1 F1800 X111.052 Y109.308 E25.4689
G1 X110.597 Y109.448 E25.51389
G1 X110.184 Y109.684 E25.55884
G1 X109.83 Y110.002 E25.60381
G1 X109.554 Y110.389 E25.64873
G1 X109.368 Y110.826 E25.69361
G1 X109.278 Y111.293 E25.73856
G1 X109.292 Y111.768 E25.78346
G1 X109.407 Y112.23 E25.82845
G1 X109.62 Y112.655 E25.87338
G1 X109.918 Y113.026 E25.91835
G1 X110.29 Y113.323 E25.96333
G1 X110.716 Y113.532 E26.00817
G1 X111.178 Y113.646 E26.05314
G1 X111.653 Y113.658 E26.09804
G1 X112.119 Y113.568 E26.14289
G1 X112.557 Y113.379 E26.18797
G1 X112.942 Y113.1 E26.2329
G1 X113.259 Y112.746 E26.27781
G1 X113.491 Y112.332 E26.32266
G1 X113.63 Y111.877 E26.36762
G1 X113.668 Y111.403 E26.41255
G1 X113.603 Y110.932 E26.45748
G1 X113.438 Y110.486 E26.50242
G1 X113.181 Y110.087 E26.54727
G1 X112.845 Y109.751 E26.59218
G1 X112.443 Y109.496 E26.63716
G1 X111.997 Y109.333 E26.68204
G1 X111.527 Y109.268 E26.72688
G0 F4500 X111.328 Y109.284
G0 X111.293 Y108.861
G0 X110.218 Y107.004
G0 X109.82 Y107.151
G1 F1800 X109.654 Y106.704 E26.77194
G1 X109.396 Y106.305 E26.81684
G1 X109.06 Y105.969 E26.86174
G1 X108.658 Y105.714 E26.90673
G1 X108.211 Y105.551 E26.95169
G1 X107.741 Y105.487 E26.99652
G1 X107.267 Y105.526 E27.04146
G1 X106.812 Y105.666 E27.08645
G1 X106.399 Y105.902 E27.1314
G1 X106.045 Y106.22 E27.17637
G1 X105.77 Y106.608 E27.22131
G1 X105.583 Y107.044 E27.26614
G1 X105.493 Y107.511 E27.31108
G1 X105.507 Y107.986 E27.35599
G1 X105.622 Y108.448 E27.40098
G1 X105.835 Y108.873 E27.44591
G1 X106.133 Y109.244 E27.49087
G1 X106.505 Y109.541 E27.53586
G1 X106.931 Y109.75 E27.5807
G1 X107.393 Y109.864 E27.62567
G1 X107.869 Y109.876 E27.67066
G1 X108.334 Y109.786 E27.71542
G1 X108.771 Y109.597 E27.76042
G1 X109.157 Y109.32 E27.80531
G1 X109.474 Y108.965 E27.85029
G1 X109.707 Y108.55 E27.89526
G1 X109.845 Y108.097 E27.94002
G1 X109.886 Y107.682 E27.97942
G1 X109.82 Y107.151 E28.02999
G0 F4500 X109.751 Y106.964
G0 X110.149 Y106.817
G0 X110.252 Y107.678
G0 X109.97 Y109.387
G0 X109.235 Y110.21
G0 X108.913 Y111.264
G0 X109.037 Y112.253
G0 X110.218 Y114.634
G0 X109.82 Y114.781
G1 F1800 X109.654 Y114.334 E28.07505
G1 X109.397 Y113.934 E28.11998
G1 X109.06 Y113.598 E28.16495
G1 X108.658 Y113.343 E28.20994
G1 X108.211 Y113.181 E28.25487
G1 X107.741 Y113.117 E28.29969
G1 X107.267 Y113.155 E28.34463
G1 X106.812 Y113.296 E28.38964
G1 X106.399 Y113.531 E28.43455
G1 X106.045 Y113.849 E28.47952
G1 X105.77 Y114.237 E28.52446
G1 X105.583 Y114.673 E28.56929
G1 X105.493 Y115.14 E28.61423
G1 X105.507 Y115.616 E28.65924
G1 X105.622 Y116.077 E28.70413
G1 X105.835 Y116.503 E28.74914
G1 X106.133 Y116.873 E28.79404
G1 X106.505 Y117.17 E28.83902
G1 X106.931 Y117.38 E28.88391
G1 X107.393 Y117.493 E28.92885
G1 X107.868 Y117.507 E28.97376
G1 X108.334 Y117.416 E29.01863
G1 X108.772 Y117.227 E29.06371
G1 X109.157 Y116.948 E29.10864
G1 X109.474 Y116.594 E29.15354
G1 X109.707 Y116.179 E29.19852
