;FLAVOR:UltiGCode
;TIME:982
;MATERIAL:1431
;MATERIAL2:0
;NOZZLE_DIAMETER:0.4
;MINX:103.306
;MINY:103.306
;MINZ:0.27
;MAXX:119.694
;MAXY:119.694
;MAXZ:23.97
;Generated with Cura_SteamEngine 4.8.0
M82 ;absolute extrusion mode
G0 F3000 Y50 ;avoid prime blob
G92 E0
G92 E0
G10
;LAYER_COUNT:159
;LAYER:0
M107
;MESH:Saunders5K_Twist.stl
G0 F4500 X116.46 Y108.748 Z0.27
;TYPE:WALL-INNER
G11
G1 F1800 X117.479 Y109.77 E0.13638
G1 X117.517 Y109.815 E0.14195
G1 X119.111 Y111.407 E0.35484
G1 X119.234 Y111.53 E0.37128
G1 X119.111 Y111.653 E0.38188
G1 X118.645 Y112.119 E0.44415
G1 X118.547 Y112.207 E0.4566
G1 X117.579 Y113.175 E0.58597
G1 X117.482 Y113.263 E0.59834
G1 X116.515 Y114.231 E0.72764
G1 X116.419 Y114.319 E0.73995
G1 X115.453 Y115.285 E0.86905
G1 X115.356 Y115.373 E0.88143
G1 X114.358 Y116.371 E1.0148
G1 X114.252 Y116.46 E1.02788
G1 X113.23 Y117.479 E1.16426
G1 X113.185 Y117.517 E1.16983
G1 X111.593 Y119.111 E1.38272
G1 X111.47 Y119.234 E1.39916
G1 X111.347 Y119.111 E1.40976
G1 X110.879 Y118.643 E1.4723
G1 X110.793 Y118.547 E1.48448
G1 X109.825 Y117.579 E1.61385
G1 X109.737 Y117.482 E1.62622
G1 X108.763 Y116.509 E1.75633
G1 X108.681 Y116.419 E1.76783
G1 X107.715 Y115.453 E1.89693
G1 X107.627 Y115.356 E1.90931
G1 X106.629 Y114.358 E2.04268
G1 X106.54 Y114.252 E2.05576
G1 X105.521 Y113.23 E2.19215
G1 X105.483 Y113.185 E2.19771
G1 X103.889 Y111.593 E2.41061
G1 X103.766 Y111.47 E2.42704
G1 X103.889 Y111.347 E2.43764
G1 X104.357 Y110.879 E2.50018
G1 X104.453 Y110.793 E2.51236
G1 X105.421 Y109.825 E2.64173
G1 X105.518 Y109.737 E2.65411
G1 X106.485 Y108.769 E2.78341
G1 X106.581 Y108.681 E2.79571
G1 X107.547 Y107.715 E2.92481
G1 X107.644 Y107.627 E2.93719
G1 X108.642 Y106.629 E3.07056
G1 X108.748 Y106.54 E3.08364
G1 X109.77 Y105.521 E3.22003
G1 X109.815 Y105.483 E3.22559
G1 X111.407 Y103.889 E3.43849
G1 X111.53 Y103.766 E3.45492
G1 X111.653 Y103.889 E3.46552
G1 X112.121 Y104.357 E3.52806
G1 X112.207 Y104.453 E3.54024
G1 X113.175 Y105.421 E3.66961
G1 X113.263 Y105.518 E3.68199
G1 X114.231 Y106.485 E3.81129
G1 X114.319 Y106.581 E3.82359
G1 X115.285 Y107.547 E3.95269
G1 X115.373 Y107.644 E3.96507
G1 X116.371 Y108.642 E4.09845
G1 X116.46 Y108.748 E4.11153
G0 F4500 X116.7 Y108.529
;TYPE:WALL-OUTER
G1 F1800 X117.715 Y109.546 E4.24731
G1 X117.756 Y109.594 E4.25327
G1 X119.571 Y111.407 E4.4957
G1 X119.694 Y111.53 E4.51214
G1 X119.571 Y111.653 E4.52273
G1 X118.873 Y112.351 E4.61602
G1 X118.771 Y112.443 E4.629
G1 X117.809 Y113.405 E4.75756
G1 X117.707 Y113.498 E4.77061
G1 X116.745 Y114.461 E4.89924
G1 X116.644 Y114.554 E4.91221
G1 X115.683 Y115.515 E5.04064
G1 X115.581 Y115.608 E5.05369
G1 X114.578 Y116.611 E5.18773
G1 X114.471 Y116.7 E5.20088
G1 X113.454 Y117.715 E5.33667
G1 X113.406 Y117.756 E5.34263
G1 X111.593 Y119.571 E5.58506
G1 X111.47 Y119.694 E5.6015
G1 X111.347 Y119.571 E5.61209
G1 X110.649 Y118.873 E5.70538
G1 X110.557 Y118.771 E5.71836
G1 X109.595 Y117.809 E5.84692
G1 X109.502 Y117.707 E5.85996
G1 X108.533 Y116.739 E5.9894
G1 X108.446 Y116.644 E6.00157
G1 X107.485 Y115.683 E6.13
G1 X107.392 Y115.581 E6.14305
G1 X106.389 Y114.578 E6.27709
G1 X106.3 Y114.471 E6.29024
G1 X105.285 Y113.454 E6.42602
G1 X105.244 Y113.406 E6.43199
G1 X103.429 Y111.593 E6.67442
G1 X103.306 Y111.47 E6.69086
G1 X103.429 Y111.347 E6.70145
G1 X104.127 Y110.649 E6.79473
G1 X104.229 Y110.557 E6.80771
G1 X105.191 Y109.595 E6.93628
G1 X105.293 Y109.502 E6.94932
G1 X106.255 Y108.539 E7.07795
G1 X106.356 Y108.446 E7.09093
G1 X107.317 Y107.485 E7.21936
G1 X107.419 Y107.392 E7.2324
G1 X108.422 Y106.389 E7.36645
G1 X108.529 Y106.3 E7.3796
G1 X109.546 Y105.285 E7.51538
G1 X109.594 Y105.244 E7.52135
G1 X111.407 Y103.429 E7.76378
G1 X111.53 Y103.306 E7.78021
G1 X111.653 Y103.429 E7.79081
G1 X112.351 Y104.127 E7.88409
G1 X112.443 Y104.229 E7.89707
G1 X113.405 Y105.191 E8.02564
G1 X113.498 Y105.293 E8.03868
G1 X114.461 Y106.255 E8.16731
G1 X114.554 Y106.356 E8.18029
G1 X115.515 Y107.317 E8.30872
G1 X115.608 Y107.419 E8.32176
G1 X116.611 Y108.422 E8.45581
G1 X116.7 Y108.529 E8.46896
G0 F4500 X116.841 Y108.67
G0 X116.209 Y108.978
;TYPE:SKIN
G1 F1800 X117.229 Y110.001 E8.60548
G1 X117.266 Y110.046 E8.61098
G1 X118.752 Y111.53 E8.80944
G1 X118.313 Y111.96 E8.86751
G1 X117.344 Y112.928 E8.99695
G1 X117.247 Y113.017 E9.00939
G1 X116.274 Y113.99 E9.13942
G1 X116.184 Y114.074 E9.15105
G1 X115.218 Y115.038 E9.28002
G1 X115.121 Y115.127 E9.29246
G1 X114.125 Y116.122 E9.4255
G1 X114.022 Y116.209 E9.43824
G1 X112.999 Y117.229 E9.57476
G1 X112.954 Y117.266 E9.58027
G1 X111.47 Y118.752 E9.77873
G1 X111.04 Y118.313 E9.8368
G1 X110.072 Y117.344 E9.96623
G1 X109.983 Y117.247 E9.97867
G1 X109.004 Y116.268 E10.10951
G1 X108.927 Y116.184 E10.12028
G1 X107.962 Y115.218 E10.24931
G1 X107.873 Y115.121 E10.26175
G1 X106.878 Y114.125 E10.39479
G1 X106.791 Y114.022 E10.40753
G1 X105.771 Y112.999 E10.54405
G1 X105.734 Y112.954 E10.54955
G1 X104.248 Y111.47 E10.74801
G1 X104.687 Y111.04 E10.80608
G1 X105.656 Y110.072 E10.93552
G1 X105.753 Y109.983 E10.94796
G1 X106.726 Y109.01 E11.07799
G1 X106.816 Y108.926 E11.08963
G1 X107.782 Y107.962 E11.21859
G1 X107.879 Y107.873 E11.23103
G1 X108.875 Y106.878 E11.36408
G1 X108.978 Y106.791 E11.37682
G1 X110.001 Y105.771 E11.51333
G1 X110.046 Y105.734 E11.51884
G1 X111.53 Y104.248 E11.7173
G1 X111.96 Y104.687 E11.77537
G1 X112.928 Y105.656 E11.9048
G1 X113.017 Y105.753 E11.91724
G1 X113.99 Y106.726 E12.04728
G1 X114.074 Y106.816 E12.05891
G1 X115.038 Y107.782 E12.18788
G1 X115.127 Y107.879 E12.20032
G1 X116.122 Y108.875 E12.33336
G1 X116.209 Y108.978 E12.3461
G0 F4500 X111.464 Y104.535
G1 F1800 X118.492 Y111.563 E13.28534
G0 F4500 X118.243 Y111.808
G1 F1800 X111.217 Y104.782 E14.22432
G0 F4500 X110.969 Y105.03
G1 F1800 X117.994 Y112.055 E15.16317
G0 F4500 X117.747 Y112.302
G1 F1800 X110.722 Y105.277 E16.10201
G0 F4500 X110.474 Y105.525
G1 F1800 X117.499 Y112.549 E17.04079
G0 F4500 X117.251 Y112.796
G1 F1800 X110.227 Y105.772 E17.97949
G0 F4500 X109.977 Y106.017
G1 F1800 X117 Y113.04 E18.91807
G0 F4500 X116.753 Y113.288
G1 F1800 X109.728 Y106.264 E19.85685
G0 F4500 X109.48 Y106.51
G1 F1800 X116.505 Y113.535 E20.79569
G0 F4500 X116.258 Y113.783
G1 F1800 X109.232 Y106.757 E21.73467
G0 F4500 X108.977 Y106.997
G1 F1800 X116.007 Y114.027 E22.67418
G0 F4500 X115.759 Y114.274
G1 F1800 X108.73 Y107.245 E23.61356
G0 F4500 X108.482 Y107.492
G1 F1800 X115.511 Y114.521 E24.55294
G0 F4500 X115.264 Y114.769
G1 F1800 X108.234 Y107.739 E25.49245
G0 F4500 X107.985 Y107.985
G1 F1800 X115.013 Y115.013 E26.43169
G0 F4500 X114.764 Y115.259
G1 F1800 X107.735 Y108.23 E27.37107
G0 F4500 X107.488 Y108.477
G1 F1800 X114.517 Y115.507 E28.31051
G0 F4500 X114.269 Y115.754
G1 F1800 X107.239 Y108.724 E29.25003
G0 F4500 X106.992 Y108.972
G1 F1800 X114.021 Y116.001 E30.1894
G0 F4500 X113.766 Y116.241
G1 F1800 X106.741 Y109.216 E31.12825
G0 F4500 X106.493 Y109.463
G1 F1800 X113.518 Y116.488 E32.06709
G0 F4500 X113.27 Y116.735
G1 F1800 X106.246 Y109.711 E33.0058
G0 F4500 X105.998 Y109.958
G1 F1800 X113.022 Y116.982 E33.94451
G0 F4500 X112.772 Y117.226
G1 F1800 X105.747 Y110.201 E34.88335
G0 F4500 X105.499 Y110.449
G1 F1800 X112.524 Y117.474 E35.8222
G0 F4500 X112.277 Y117.721
G1 F1800 X105.252 Y110.696 E36.76104
G0 F4500 X105.004 Y110.944
G1 F1800 X112.029 Y117.969 E37.69988
G0 F4500 X111.782 Y118.216
G1 F1800 X104.756 Y111.191 E38.63879
G0 F4500 X104.506 Y111.436
G1 F1800 X111.534 Y118.464 E39.57804
G1 X111.596 Y118.526
;MESH:NONMESH
G0 F600 X111.596 Y118.526 Z0.42
G0 F4500 X116.484 Y108.912
G0 X116.53 Y108.867
;TIME_ELAPSED:18.835770
;LAYER:1
M106 S255
;TYPE:WALL-INNER
;MESH:Saunders5K_Twist.stl
G1 F2400 X117.475 Y109.812 E39.6482
G1 X117.577 Y109.935 E39.65659
G1 X119.218 Y111.576 E39.77843
G1 X118.769 Y112.025 E39.81176
G1 X118.52 Y112.252 E39.82945
G1 X117.696 Y113.075 E39.89059
G1 X117.453 Y113.297 E39.90787
G1 X116.628 Y114.121 E39.96909
G1 X116.386 Y114.343 E39.98633
G1 X115.568 Y115.161 E40.04707
G1 X115.319 Y115.388 E40.06475
G1 X114.391 Y116.317 E40.13369
G1 X114.133 Y116.53 E40.15126
G1 X113.188 Y117.475 E40.22142
G1 X113.065 Y117.577 E40.22981
G1 X111.424 Y119.218 E40.35165
G1 X110.975 Y118.769 E40.38498
G1 X110.748 Y118.52 E40.40267
G1 X109.925 Y117.696 E40.46381
G1 X109.703 Y117.453 E40.48109
G1 X108.879 Y116.628 E40.54231
G1 X108.657 Y116.386 E40.55955
G1 X107.839 Y115.568 E40.62028
G1 X107.612 Y115.319 E40.63797
G1 X106.683 Y114.391 E40.70691
G1 X106.47 Y114.133 E40.72448
G1 X105.525 Y113.188 E40.79464
G1 X105.423 Y113.065 E40.80303
G1 X103.782 Y111.424 E40.92487
G1 X104.231 Y110.975 E40.9582
G1 X104.48 Y110.748 E40.97589
G1 X105.304 Y109.925 E41.03703
G1 X105.547 Y109.703 E41.05431
G1 X106.372 Y108.879 E41.11553
G1 X106.614 Y108.657 E41.13277
G1 X107.432 Y107.839 E41.1935
G1 X107.681 Y107.612 E41.21119
G1 X108.609 Y106.683 E41.28013
G1 X108.867 Y106.47 E41.2977
G1 X109.812 Y105.525 E41.36786
G1 X109.935 Y105.423 E41.37625
G1 X111.576 Y103.782 E41.49809
G1 X112.025 Y104.231 E41.53142
G1 X112.252 Y104.48 E41.54911
G1 X113.075 Y105.304 E41.61025
G1 X113.297 Y105.547 E41.62753
G1 X114.121 Y106.372 E41.68875
G1 X114.343 Y106.614 E41.70599
G1 X115.161 Y107.432 E41.76672
G1 X115.388 Y107.681 E41.78441
G1 X116.317 Y108.609 E41.85335
G1 X116.53 Y108.867 E41.87092
G0 F6750 X116.771 Y108.648
;TYPE:WALL-OUTER
G1 F2100 X117.71 Y109.587 E41.94063
G1 X117.817 Y109.716 E41.94943
G1 X119.555 Y111.453 E42.07843
G1 X119.678 Y111.576 E42.08757
G1 X119.555 Y111.699 E42.09345
G1 X118.999 Y112.255 E42.13473
G1 X118.745 Y112.487 E42.15279
G1 X117.926 Y113.305 E42.21356
G1 X117.678 Y113.532 E42.23121
G1 X116.858 Y114.351 E42.29206
G1 X116.611 Y114.578 E42.30967
G1 X115.798 Y115.391 E42.37003
G1 X115.544 Y115.623 E42.38809
G1 X114.615 Y116.553 E42.45711
G1 X114.352 Y116.771 E42.47504
G1 X113.413 Y117.71 E42.54476
G1 X113.284 Y117.817 E42.55356
G1 X111.547 Y119.555 E42.68256
G1 X111.424 Y119.678 E42.69169
G1 X111.301 Y119.555 E42.69758
G1 X110.745 Y118.999 E42.73886
G1 X110.513 Y118.745 E42.75692
G1 X109.695 Y117.926 E42.81769
G1 X109.468 Y117.678 E42.83534
G1 X108.649 Y116.858 E42.89618
G1 X108.422 Y116.611 E42.9138
G1 X107.609 Y115.798 E42.97416
G1 X107.377 Y115.544 E42.99222
G1 X106.447 Y114.615 E43.06123
G1 X106.229 Y114.352 E43.07917
G1 X105.29 Y113.413 E43.14888
G1 X105.183 Y113.284 E43.15768
G1 X103.445 Y111.547 E43.28668
G1 X103.322 Y111.424 E43.29582
G1 X103.445 Y111.301 E43.3017
G1 X104.001 Y110.745 E43.34298
G1 X104.255 Y110.513 E43.36104
G1 X105.074 Y109.695 E43.42181
G1 X105.322 Y109.468 E43.43946
G1 X106.142 Y108.649 E43.50031
G1 X106.389 Y108.422 E43.51792
G1 X107.202 Y107.609 E43.57828
G1 X107.456 Y107.377 E43.59634
G1 X108.385 Y106.447 E43.66536
G1 X108.648 Y106.229 E43.68329
G1 X109.587 Y105.29 E43.75301
G1 X109.716 Y105.183 E43.76181
G1 X111.453 Y103.445 E43.89081
G1 X111.576 Y103.322 E43.89994
G1 X111.699 Y103.445 E43.90583
G1 X112.255 Y104.001 E43.94711
G1 X112.487 Y104.255 E43.96517
G1 X113.305 Y105.074 E44.02594
G1 X113.532 Y105.322 E44.04359
G1 X114.351 Y106.142 E44.10443
G1 X114.578 Y106.389 E44.12205
G1 X115.391 Y107.202 E44.18241
G1 X115.623 Y107.456 E44.20047
G1 X116.553 Y108.385 E44.26948
G1 X116.771 Y108.648 E44.28741
G0 F6750 X116.912 Y108.789
G0 X116.278 Y109.096
;TYPE:SKIN
G1 F1800 X117.228 Y110.047 E44.35799
G1 X117.325 Y110.164 E44.36596
G1 X118.736 Y111.576 E44.47076
G1 X118.285 Y112.006 E44.50348
G1 X117.455 Y112.834 E44.56503
G1 X117.218 Y113.051 E44.5819
G1 X116.387 Y113.88 E44.64352
G1 X116.151 Y114.098 E44.66039
G1 X115.327 Y114.92 E44.72149
G1 X115.084 Y115.142 E44.73877
G1 X114.153 Y116.073 E44.8079
G1 X113.904 Y116.278 E44.82483
G1 X112.953 Y117.228 E44.8954
G1 X112.836 Y117.325 E44.90338
G1 X111.424 Y118.736 E45.00818
G1 X110.994 Y118.285 E45.04089
G1 X110.166 Y117.455 E45.10244
G1 X109.949 Y117.218 E45.11931
G1 X109.12 Y116.387 E45.18094
G1 X108.902 Y116.151 E45.19781
G1 X108.08 Y115.327 E45.25891
G1 X107.858 Y115.084 E45.27619
G1 X106.924 Y114.15 E45.34554
G1 X106.722 Y113.904 E45.36225
G1 X105.772 Y112.953 E45.43282
G1 X105.675 Y112.836 E45.4408
G1 X104.264 Y111.424 E45.5456
G1 X104.715 Y110.994 E45.57831
G1 X105.545 Y110.166 E45.63986
G1 X105.782 Y109.949 E45.65673
G1 X106.613 Y109.12 E45.71836
G1 X106.849 Y108.902 E45.73522
G1 X107.673 Y108.08 E45.79633
G1 X107.916 Y107.858 E45.81361
G1 X108.85 Y106.924 E45.88295
G1 X109.096 Y106.722 E45.89966
G1 X110.047 Y105.772 E45.97024
G1 X110.164 Y105.675 E45.97821
G1 X111.576 Y104.264 E46.08301
G1 X112.006 Y104.715 E46.11573
G1 X112.834 Y105.545 E46.17728
G1 X113.051 Y105.782 E46.19415
G1 X113.88 Y106.613 E46.25577
G1 X114.098 Y106.849 E46.27264
G1 X114.92 Y107.673 E46.33374
G1 X115.142 Y107.916 E46.35102
G1 X116.076 Y108.85 E46.42037
G1 X116.278 Y109.096 E46.43708
G0 F6750 X118.302 Y111.365
G1 F1800 X111.295 Y118.372 E46.95732
G0 F6750 X111.053 Y118.12
G1 F1800 X118.055 Y111.118 E47.4772
G0 F6750 X117.807 Y110.87
G1 F1800 X110.805 Y117.872 E47.99707
G0 F6750 X110.558 Y117.624
G1 F1800 X117.56 Y110.623 E48.5169
G0 F6750 X117.312 Y110.375
G1 F1800 X110.311 Y117.376 E49.0367
G0 F6750 X110.073 Y117.119
G1 F1800 X117.075 Y110.117 E49.55657
G0 F6750 X116.828 Y109.87
G1 F1800 X109.827 Y116.871 E50.07637
G0 F6750 X109.58 Y116.623
G1 F1800 X116.58 Y109.622 E50.59613
G0 F6750 X116.333 Y109.375
G1 F1800 X109.332 Y116.375 E51.11589
G0 F6750 X109.091 Y116.122
G1 F1800 X116.093 Y109.12 E51.63576
G0 F6750 X115.86 Y108.858
G1 F1800 X108.847 Y115.871 E52.15645
G0 F6750 X108.6 Y115.623
G1 F1800 X115.612 Y108.61 E52.6771
G0 F6750 X115.365 Y108.363
G1 F1800 X108.352 Y115.375 E53.19776
G0 F6750 X108.109 Y115.124
G1 F1800 X115.117 Y108.115 E53.71811
G0 F6750 X114.877 Y107.861
G1 F1800 X107.868 Y114.87 E54.2385
G0 F6750 X107.62 Y114.622
G1 F1800 X114.633 Y107.61 E54.75915
G0 F6750 X114.386 Y107.362
G1 F1800 X107.373 Y114.375 E55.27984
G0 F6750 X107.125 Y114.127
G1 F1800 X114.139 Y107.114 E55.80057
G0 F6750 X113.895 Y106.863
G1 F1800 X106.894 Y113.864 E56.32037
G0 F6750 X106.652 Y113.61
G1 F1800 X113.653 Y106.61 E56.84013
G0 F6750 X113.405 Y106.363
G1 F1800 X106.405 Y113.363 E57.35985
G0 F6750 X106.157 Y113.115
G1 F1800 X113.159 Y106.114 E57.87968
G0 F6750 X112.912 Y105.865
G1 F1800 X105.91 Y112.868 E58.39959
G0 F6750 X105.673 Y112.61
G1 F1800 X112.674 Y105.609 E58.91939
G0 F6750 X112.427 Y105.361
G1 F1800 X105.426 Y112.362 E59.43919
G0 F6750 X105.178 Y112.115
G1 F1800 X112.18 Y105.113 E59.95906
G0 F6750 X111.932 Y104.866
G1 F1800 X104.931 Y111.867 E60.47886
G0 F6750 X104.683 Y111.62
G1 F1800 X111.69 Y104.613 E60.9991
G1 X111.752 Y104.551
;MESH:NONMESH
G0 F600 X111.752 Y104.551 Z0.57
G0 F6750 X117.572 Y110.07
G0 X117.621 Y110.022
;TIME_ELAPSED:32.724930
;LAYER:2
;TYPE:WALL-INNER
;MESH:Saunders5K_Twist.stl
G1 F3000 X119.082 Y111.483 E61.10758
G1 X119.207 Y111.608 E61.11686
G1 X119.08 Y111.73 E61.12279
G1 X119.079 Y111.731 E61.12287
G1 X118.502 Y112.282 E61.16475
G1 X117.783 Y113 E61.2181
G1 X117.432 Y113.321 E61.24307
G1 X116.72 Y114.033 E61.29593
G1 X116.362 Y114.36 E61.32139
G1 X115.65 Y115.072 E61.37425
G1 X115.292 Y115.399 E61.39971
G1 X114.415 Y116.275 E61.46478
G1 X114.048 Y116.582 E61.4899
G1 X113.155 Y117.473 E61.55613
G1 X112.978 Y117.621 E61.56825
G1 X111.517 Y119.082 E61.67672
G1 X111.392 Y119.207 E61.686
G1 X111.27 Y119.08 E61.69194
G1 X111.269 Y119.079 E61.69201
G1 X110.718 Y118.502 E61.7339
G1 X110 Y117.783 E61.78724
G1 X109.679 Y117.432 E61.81221
G1 X108.967 Y116.72 E61.86508
G1 X108.64 Y116.362 E61.89053
G1 X107.928 Y115.65 E61.9434
G1 X107.601 Y115.292 E61.96885
G1 X106.725 Y114.415 E62.03393
G1 X106.418 Y114.048 E62.05905
G1 X105.526 Y113.154 E62.12535
G1 X105.379 Y112.978 E62.13739
G1 X103.918 Y111.517 E62.24586
G1 X103.793 Y111.392 E62.25514
G1 X103.92 Y111.27 E62.26108
G1 X103.921 Y111.269 E62.26115
G1 X104.498 Y110.718 E62.30304
G1 X105.217 Y110 E62.35639
G1 X105.568 Y109.679 E62.38136
G1 X106.28 Y108.967 E62.43422
G1 X106.638 Y108.64 E62.45968
G1 X107.35 Y107.928 E62.51254
G1 X107.708 Y107.601 E62.53799
G1 X108.585 Y106.725 E62.60307
G1 X108.952 Y106.418 E62.62819
G1 X109.846 Y105.526 E62.69449
G1 X110.022 Y105.379 E62.70653
G1 X111.483 Y103.918 E62.81501
G1 X111.608 Y103.793 E62.82429
