;FLAVOR:UltiGCode
;TIME:684
;MATERIAL:1017
;MATERIAL2:0
;NOZZLE_DIAMETER:0.4
;MINX:99.677
;MINY:100.078
;MINZ:0.27
;MAXX:123.323
;MAXY:122.93
;MAXZ:15.12
;Generated with Cura_SteamEngine 4.8.0
M82 ;absolute extrusion mode
G0 F3000 Y50 ;avoid prime blob
G92 E0
G92 E0
G10
;LAYER_COUNT:100
;LAYER:0
M107
G0 F4500 X103.506 Y102.916 Z0.27
;TYPE:SKIRT
G11
G1 F1800 X104.069 Y102.357 E0.07497
G1 X105.009 Y101.633 E0.1871
G1 X105.416 Y101.366 E0.2331
G1 X106.101 Y100.965 E0.30811
G1 X106.822 Y100.635 E0.38304
G1 X107.573 Y100.379 E0.45802
G1 X108.346 Y100.2 E0.533
G1 X109.133 Y100.099 E0.60798
G1 X109.927 Y100.078 E0.68304
G1 X110.718 Y100.137 E0.758
G1 X111.499 Y100.276 E0.83296
G1 X111.569 Y100.296 E0.83984
G1 X111.807 Y100.239 E0.86297
G1 X112.593 Y100.132 E0.93793
G1 X113.386 Y100.105 E1.01291
G1 X114.178 Y100.158 E1.08792
G1 X114.96 Y100.29 E1.16287
G1 X115.725 Y100.5 E1.23783
G1 X116.465 Y100.787 E1.31284
G1 X116.929 Y101.012 E1.36157
G1 X117.356 Y101.237 E1.40718
G1 X118.039 Y101.642 E1.48222
G1 X118.677 Y102.113 E1.55716
G1 X119.264 Y102.646 E1.63209
G1 X119.795 Y103.236 E1.7071
G1 X120.264 Y103.876 E1.78208
G1 X120.666 Y104.56 E1.85705
G1 X120.998 Y105.281 E1.93206
G1 X121.22 Y105.929 E1.99679
G1 X121.502 Y106.237 E2.03626
G1 X121.977 Y106.872 E2.1112
G1 X122.386 Y107.552 E2.18618
G1 X122.724 Y108.27 E2.26118
G1 X122.988 Y109.018 E2.33614
G1 X123.176 Y109.789 E2.41113
G1 X123.285 Y110.575 E2.48612
G1 X123.314 Y111.117 E2.53741
G1 X123.323 Y111.603 E2.58335
G1 X123.297 Y112.396 E2.65832
G1 X123.192 Y113.183 E2.73336
G1 X123.009 Y113.955 E2.80833
G1 X122.748 Y114.704 E2.88329
G1 X122.414 Y115.424 E2.95829
G1 X122.009 Y116.106 E3.03325
G1 X121.537 Y116.744 E3.10824
G1 X121.157 Y117.163 E3.1617
G1 X120.93 Y117.8 E3.2256
G1 X120.591 Y118.517 E3.30055
G1 X120.181 Y119.196 E3.37551
G1 X119.705 Y119.831 E3.4505
G1 X119.168 Y120.415 E3.52547
G1 X118.574 Y120.941 E3.60045
G1 X117.955 Y121.39 E3.67272
G1 X117.552 Y121.653 E3.71819
G1 X116.866 Y122.053 E3.79323
G1 X116.144 Y122.381 E3.86817
G1 X115.393 Y122.635 E3.94309
G1 X114.619 Y122.813 E4.01814
G1 X113.832 Y122.911 E4.09309
G1 X113.039 Y122.93 E4.16805
G1 X112.247 Y122.869 E4.24312
G1 X111.466 Y122.729 E4.3181
G1 X111.402 Y122.711 E4.32438
G1 X111.193 Y122.761 E4.34469
G1 X110.407 Y122.868 E4.41965
G1 X109.614 Y122.895 E4.49463
G1 X108.822 Y122.842 E4.56964
G1 X108.04 Y122.71 E4.64459
G1 X107.275 Y122.5 E4.71955
G1 X106.535 Y122.213 E4.79456
G1 X106.071 Y121.988 E4.84329
G1 X105.644 Y121.763 E4.8889
G1 X104.961 Y121.358 E4.96394
G1 X104.323 Y120.887 E5.03888
G1 X103.736 Y120.354 E5.11381
G1 X103.205 Y119.764 E5.18882
G1 X102.736 Y119.124 E5.2638
G1 X102.334 Y118.44 E5.33877
G1 X102.002 Y117.719 E5.41378
G1 X101.78 Y117.071 E5.47851
G1 X101.498 Y116.763 E5.51798
G1 X101.023 Y116.128 E5.59292
G1 X100.614 Y115.448 E5.6679
G1 X100.276 Y114.73 E5.7429
G1 X100.012 Y113.982 E5.81786
G1 X99.824 Y113.211 E5.89285
G1 X99.715 Y112.425 E5.96784
G1 X99.686 Y111.883 E6.01913
G1 X99.677 Y111.397 E6.06507
G1 X99.703 Y110.604 E6.14004
G1 X99.808 Y109.817 E6.21508
G1 X99.991 Y109.045 E6.29005
G1 X100.252 Y108.296 E6.36501
G1 X100.586 Y107.576 E6.44001
G1 X100.991 Y106.894 E6.51497
G1 X101.463 Y106.256 E6.58996
G1 X101.825 Y105.857 E6.64087
G1 X101.893 Y105.626 E6.66363
G1 X102.191 Y104.891 E6.73858
G1 X102.562 Y104.19 E6.81353
G1 X103.002 Y103.529 E6.88857
G1 X103.506 Y102.916 E6.96356
G0 F4500 X103.848 Y103.062
G1 F1800 X104.407 Y102.526 E7.03675
G1 X105.201 Y101.926 E7.13079
G1 X105.608 Y101.659 E7.17679
G1 X106.278 Y101.268 E7.2501
G1 X106.984 Y100.947 E7.32339
G1 X107.72 Y100.701 E7.39673
G1 X108.477 Y100.532 E7.47002
G1 X109.247 Y100.442 E7.54328
G1 X110.023 Y100.431 E7.61662
G1 X110.795 Y100.501 E7.68988
G1 X111.557 Y100.65 E7.76325
G1 X111.923 Y100.573 E7.79859
G1 X112.692 Y100.475 E7.87185
G1 X113.468 Y100.457 E7.9452
G1 X114.241 Y100.518 E8.01848
G1 X115.004 Y100.659 E8.0918
G1 X115.748 Y100.878 E8.16509
G1 X116.766 Y101.322 E8.27005
G1 X117.193 Y101.547 E8.31566
G1 X117.86 Y101.943 E8.38896
G1 X118.482 Y102.406 E8.46224
G1 X119.053 Y102.931 E8.53554
G1 X119.568 Y103.511 E8.60883
G1 X120.019 Y104.142 E8.68213
G1 X120.404 Y104.815 E8.7554
G1 X120.717 Y105.525 E8.82872
G1 X120.902 Y106.099 E8.88572
G1 X121.266 Y106.5 E8.93689
G1 X121.725 Y107.125 E9.01017
G1 X122.118 Y107.794 E9.08349
G1 X122.44 Y108.5 E9.15682
G1 X122.687 Y109.235 E9.2301
G1 X122.857 Y109.992 E9.30342
G1 X122.964 Y111.124 E9.41087
G1 X122.973 Y111.61 E9.4568
G1 X122.947 Y112.385 E9.53008
G1 X122.842 Y113.153 E9.60333
G1 X122.658 Y113.907 E9.67668
G1 X122.398 Y114.637 E9.74991
G1 X122.063 Y115.337 E9.82324
G1 X121.659 Y115.999 E9.89653
G1 X121.188 Y116.616 E9.96988
G1 X120.85 Y116.985 E10.01717
G1 X120.587 Y117.714 E10.09041
G1 X120.249 Y118.413 E10.16378
G1 X119.842 Y119.073 E10.23706
G1 X119.369 Y119.687 E10.3103
G1 X118.835 Y120.25 E10.38363
G1 X118.246 Y120.754 E10.45688
G1 X117.764 Y121.097 E10.51279
G1 X117.361 Y121.36 E10.55827
G1 X116.69 Y121.75 E10.63161
G1 X115.983 Y122.068 E10.70487
G1 X115.247 Y122.313 E10.77817
G1 X114.489 Y122.48 E10.85152
G1 X113.719 Y122.568 E10.92476
G1 X112.943 Y122.577 E10.99809
G1 X112.171 Y122.506 E11.07136
G1 X111.399 Y122.352 E11.14575
G1 X111.077 Y122.427 E11.17699
G1 X110.308 Y122.525 E11.25025
G1 X109.532 Y122.543 E11.3236
G1 X108.759 Y122.482 E11.39688
G1 X107.996 Y122.341 E11.4702
G1 X107.252 Y122.122 E11.54349
G1 X106.234 Y121.678 E11.64844
G1 X105.807 Y121.453 E11.69406
G1 X105.14 Y121.057 E11.76736
G1 X104.518 Y120.594 E11.84063
G1 X103.947 Y120.069 E11.91394
G1 X103.432 Y119.489 E11.98723
G1 X102.981 Y118.858 E12.06053
G1 X102.596 Y118.185 E12.1338
G1 X102.283 Y117.475 E12.20712
G1 X102.098 Y116.901 E12.26411
G1 X101.734 Y116.5 E12.31529
G1 X101.275 Y115.875 E12.38857
G1 X100.882 Y115.206 E12.46189
G1 X100.56 Y114.5 E12.53522
G1 X100.313 Y113.765 E12.6085
G1 X100.143 Y113.008 E12.68182
G1 X100.036 Y111.876 E12.78927
G1 X100.027 Y111.39 E12.8352
G1 X100.053 Y110.615 E12.90848
G1 X100.158 Y109.847 E12.98173
G1 X100.342 Y109.093 E13.05507
G1 X100.602 Y108.363 E13.1283
G1 X100.937 Y107.663 E13.20164
G1 X101.341 Y107.001 E13.27493
G1 X101.812 Y106.384 E13.34828
G1 X102.137 Y106.038 E13.39314
G1 X102.241 Y105.692 E13.42728
G1 X102.538 Y104.976 E13.50053
G1 X102.908 Y104.294 E13.57386
G1 X103.346 Y103.654 E13.64714
G1 X103.848 Y103.062 E13.72049
G0 F4500 X104.189 Y103.212
G1 F1800 X104.745 Y102.698 E13.79205
G1 X105.393 Y102.219 E13.8682
G1 X105.8 Y101.952 E13.9142
G1 X106.455 Y101.57 E13.98585
G1 X107.146 Y101.26 E14.05742
G1 X107.865 Y101.024 E14.12893
G1 X108.606 Y100.866 E14.20053
G1 X109.359 Y100.786 E14.27209
G1 X110.116 Y100.786 E14.34363
G1 X110.869 Y100.866 E14.41519
G1 X111.568 Y101.016 E14.48275
G1 X112.038 Y100.909 E14.5283
G1 X112.79 Y100.819 E14.59987
G1 X113.547 Y100.81 E14.67141
G1 X114.301 Y100.88 E14.74297
G1 X115.044 Y101.03 E14.8146
G1 X115.766 Y101.257 E14.88612
G1 X116.603 Y101.631 E14.97276
G1 X117.03 Y101.856 E15.01837
G1 X117.68 Y102.244 E15.0899
G1 X118.286 Y102.699 E15.16152
G1 X118.841 Y103.214 E15.23306
G1 X119.338 Y103.786 E15.30467
G1 X119.772 Y104.406 E15.37619
G1 X120.139 Y105.069 E15.4478
G1 X120.433 Y105.767 E15.51938
G1 X120.585 Y106.268 E15.56885
G1 X121.029 Y106.764 E15.63176
G1 X121.472 Y107.378 E15.70331
G1 X121.848 Y108.035 E15.77484
G1 X122.152 Y108.729 E15.84644
G1 X122.382 Y109.45 E15.91796
G1 X122.535 Y110.192 E15.98955
G1 X122.614 Y111.13 E16.07851
G1 X122.623 Y111.616 E16.12444
G1 X122.597 Y112.373 E16.19602
G1 X122.491 Y113.123 E16.2676
G1 X122.307 Y113.858 E16.3392
G1 X122.047 Y114.569 E16.41074
G1 X121.713 Y115.249 E16.48234
G1 X121.309 Y115.889 E16.55386
G1 X120.84 Y116.484 E16.62545
G1 X120.536 Y116.796 E16.66662
G1 X120.505 Y116.917 E16.67842
G1 X120.243 Y117.628 E16.75003
G1 X119.908 Y118.307 E16.82158
G1 X119.503 Y118.947 E16.89315
G1 X119.033 Y119.541 E16.96473
G1 X118.502 Y120.081 E17.0363
G1 X117.918 Y120.563 E17.10786
G1 X117.169 Y121.067 E17.19317
G1 X116.514 Y121.447 E17.26473
G1 X115.822 Y121.755 E17.33631
G1 X115.102 Y121.989 E17.40785
G1 X114.361 Y122.146 E17.47943
G1 X113.608 Y122.224 E17.55097
G1 X112.851 Y122.222 E17.62251
G1 X112.098 Y122.14 E17.69409
G1 X111.407 Y121.99 E17.76091
G1 X110.962 Y122.091 E17.80403
G1 X110.21 Y122.181 E17.8756
G1 X109.453 Y122.19 E17.94714
G1 X108.699 Y122.12 E18.0187
G1 X107.956 Y121.97 E18.09033
G1 X107.234 Y121.743 E18.16185
G1 X106.397 Y121.369 E18.24849
G1 X105.97 Y121.144 E18.2941
G1 X105.32 Y120.756 E18.36563
G1 X104.714 Y120.301 E18.43724
G1 X104.159 Y119.786 E18.50879
G1 X103.662 Y119.214 E18.5804
G1 X103.228 Y118.594 E18.65192
G1 X102.861 Y117.931 E18.72353
G1 X102.567 Y117.233 E18.7951
G1 X102.415 Y116.732 E18.84458
G1 X101.971 Y116.236 E18.90749
G1 X101.528 Y115.622 E18.97904
G1 X101.152 Y114.965 E19.05057
G1 X100.848 Y114.271 E19.12217
G1 X100.618 Y113.55 E19.19369
G1 X100.465 Y112.808 E19.26528
G1 X100.386 Y111.87 E19.35424
G1 X100.377 Y111.384 E19.40017
G1 X100.403 Y110.627 E19.47175
G1 X100.509 Y109.877 E19.54333
G1 X100.693 Y109.142 E19.61493
G1 X100.953 Y108.431 E19.68647
G1 X101.287 Y107.751 E19.75807
G1 X101.691 Y107.111 E19.82959
G1 X102.16 Y106.516 E19.90118
G1 X102.447 Y106.222 E19.94001
G1 X102.588 Y105.759 E19.98575
G1 X102.885 Y105.062 E20.05734
G1 X103.254 Y104.401 E20.12888
G1 X103.69 Y103.782 E20.20043
G1 X104.189 Y103.212 E20.27202
G0 F4500 X104.53 Y103.365
G1 F1800 X105.082 Y102.875 E20.34177
G1 X105.585 Y102.511 E20.40045
G1 X105.992 Y102.244 E20.44645
G1 X106.631 Y101.873 E20.51627
G1 X107.306 Y101.573 E20.58607
G1 X108.009 Y101.348 E20.65583
G1 X108.733 Y101.2 E20.72566
G1 X109.469 Y101.131 E20.79552
G1 X110.207 Y101.142 E20.86527
G1 X110.94 Y101.233 E20.93507
G1 X111.548 Y101.377 E20.99411
G1 X112.151 Y101.244 E21.05246
G1 X112.885 Y101.164 E21.12224
G1 X113.624 Y101.164 E21.19207
G1 X114.358 Y101.243 E21.26184
G1 X115.08 Y101.402 E21.3317
G1 X115.78 Y101.637 E21.40148
G1 X116.44 Y101.941 E21.47015
G1 X116.867 Y102.166 E21.51576
G1 X117.501 Y102.545 E21.58556
G1 X118.09 Y102.991 E21.65538
G1 X118.627 Y103.497 E21.7251
G1 X119.107 Y104.059 E21.79495
G1 X119.523 Y104.669 E21.86472
G1 X119.871 Y105.321 E21.93456
G1 X120.146 Y106.006 E22.00432
G1 X120.301 Y106.472 E22.05073
G1 X120.79 Y107.026 E22.12056
G1 X121.217 Y107.629 E22.19038
G1 X121.576 Y108.274 E22.26014
G1 X121.863 Y108.955 E22.32997
G1 X122.075 Y109.663 E22.39981
G1 X122.209 Y110.389 E22.46958
G1 X122.264 Y111.137 E22.54046
G1 X122.273 Y111.623 E22.58639
G1 X122.247 Y112.361 E22.65618
G1 X122.141 Y113.092 E22.72598
G1 X121.956 Y113.807 E22.79577
G1 X121.696 Y114.498 E22.86554
G1 X121.362 Y115.157 E22.93536
G1 X120.959 Y115.776 E23.00516
G1 X120.492 Y116.348 E23.07494
G1 X120.22 Y116.616 E23.11102
G1 X120.16 Y116.848 E23.13367
G1 X119.9 Y117.54 E23.20353
G1 X119.566 Y118.199 E23.27334
G1 X119.164 Y118.818 E23.34309
G1 X118.697 Y119.391 E23.41295
G1 X118.171 Y119.909 E23.48271
G1 X117.381 Y120.511 E23.57657
G1 X116.978 Y120.774 E23.62205
G1 X116.338 Y121.143 E23.69186
G1 X115.663 Y121.442 E23.76162
G1 X114.959 Y121.665 E23.83141
G1 X114.235 Y121.811 E23.90121
G1 X113.499 Y121.878 E23.97104
G1 X112.761 Y121.866 E24.04079
G1 X112.028 Y121.773 E24.11062
G1 X111.424 Y121.629 E24.1693
G1 X110.849 Y121.756 E24.22494
G1 X110.115 Y121.836 E24.29472
G1 X109.376 Y121.836 E24.36455
G1 X108.642 Y121.757 E24.43432
G1 X107.92 Y121.598 E24.50418
G1 X107.22 Y121.363 E24.57396
G1 X106.56 Y121.059 E24.64263
G1 X106.133 Y120.834 E24.68824
G1 X105.499 Y120.455 E24.75804
G1 X104.91 Y120.009 E24.82786
G1 X104.373 Y119.503 E24.89758
G1 X103.893 Y118.941 E24.96743
G1 X103.477 Y118.331 E25.0372
G1 X103.129 Y117.679 E25.10704
G1 X102.854 Y116.994 E25.17679
G1 X102.699 Y116.528 E25.2232
G1 X102.21 Y115.974 E25.29303
G1 X101.783 Y115.371 E25.36286
G1 X101.424 Y114.726 E25.43262
G1 X101.137 Y114.045 E25.50245
G1 X100.925 Y113.337 E25.57229
G1 X100.791 Y112.611 E25.64206
G1 X100.736 Y111.863 E25.71294
G1 X100.727 Y111.377 E25.75887
G1 X100.753 Y110.639 E25.82865
G1 X100.859 Y109.908 E25.89846
G1 X101.044 Y109.193 E25.96825
G1 X101.304 Y108.502 E26.03802
G1 X101.638 Y107.843 E26.10784
G1 X102.041 Y107.224 E26.17764
G1 X102.508 Y106.652 E26.24742
G1 X102.753 Y106.411 E26.27989
G1 X102.936 Y105.828 E26.33764
G1 X103.232 Y105.151 E26.40746
G1 X103.599 Y104.51 E26.47726
G1 X104.033 Y103.913 E26.54701
G1 X104.53 Y103.365 E26.61692
G0 F4500 X104.377 Y104.047
G1 F1800 X104.87 Y103.523 E26.68491
G1 X105.418 Y103.057 E26.75289
G1 X106.184 Y102.537 E26.84038
G1 X106.807 Y102.176 E26.90842
G1 X107.466 Y101.887 E26.97642
G1 X108.152 Y101.673 E27.04433
G1 X108.859 Y101.536 E27.11239
G1 X109.576 Y101.478 E27.18036
G1 X110.295 Y101.5 E27.24834
G1 X111.007 Y101.602 E27.31631
G1 X111.537 Y101.739 E27.36804
G1 X111.56 Y101.731 E27.37035
G1 X112.263 Y101.581 E27.43827
G1 X112.979 Y101.51 E27.50627
G1 X113.699 Y101.519 E27.57431
G1 X114.413 Y101.608 E27.64231
G1 X115.112 Y101.775 E27.71022
G1 X115.789 Y102.019 E27.77823
G1 X116.276 Y102.251 E27.8292
G1 X116.703 Y102.476 E27.87482
G1 X117.32 Y102.846 E27.9428
G1 X117.892 Y103.282 E28.01077
G1 X118.412 Y103.779 E28.07874
G1 X118.874 Y104.331 E28.14677
G1 X119.272 Y104.931 E28.21481
G1 X119.6 Y105.571 E28.28277
G1 X119.856 Y106.243 E28.35072
G1 X119.956 Y106.633 E28.38877
G1 X120.078 Y106.745 E28.40442
G1 X120.551 Y107.287 E28.4724
G1 X120.96 Y107.879 E28.5404
G1 X121.302 Y108.512 E28.60839
G1 X121.571 Y109.179 E28.67635
G1 X121.764 Y109.872 E28.74433
G1 X121.879 Y110.582 E28.8123
G1 X121.914 Y111.143 E28.86542
G1 X121.923 Y111.629 E28.91136
G1 X121.896 Y112.348 E28.97935
G1 X121.79 Y113.06 E29.04738
G1 X121.605 Y113.755 E29.11534
G1 X121.345 Y114.426 E29.18334
G1 X121.012 Y115.063 E29.25127
G1 X120.61 Y115.66 E29.31928
G1 X120.144 Y116.208 E29.38726
G1 X119.906 Y116.432 E29.41815
G1 X119.815 Y116.779 E29.45205
G1 X119.556 Y117.45 E29.52002
G1 X119.225 Y118.089 E29.58802
G1 X118.826 Y118.687 E29.65596
G1 X118.362 Y119.237 E29.72396
G1 X117.84 Y119.732 E29.79194
G1 X117.19 Y120.217 E29.86858
G1 X116.787 Y120.48 E29.91406
G1 X116.163 Y120.84 E29.98213
G1 X115.504 Y121.127 E30.05006
G1 X114.817 Y121.34 E30.11803
G1 X114.11 Y121.475 E30.18605
G1 X113.393 Y121.531 E30.25401
G1 X112.674 Y121.507 E30.32199
G1 X111.962 Y121.404 E30.38998
G1 X111.443 Y121.268 E30.44068
G1 X110.737 Y121.419 E30.50891
G1 X110.021 Y121.49 E30.5769
G1 X109.301 Y121.481 E30.64494
G1 X108.587 Y121.392 E30.71294
G1 X107.888 Y121.225 E30.78085
G1 X107.211 Y120.981 E30.84886
G1 X106.724 Y120.749 E30.89984
G1 X106.297 Y120.524 E30.94545
G1 X105.68 Y120.154 E31.01343
G1 X105.108 Y119.718 E31.0814
G1 X104.588 Y119.221 E31.14937
G1 X104.126 Y118.669 E31.2174
G1 X103.728 Y118.069 E31.28544
G1 X103.4 Y117.429 E31.3534
G1 X103.144 Y116.757 E31.42135
G1 X103.044 Y116.367 E31.4594
G1 X102.922 Y116.255 E31.47505
G1 X102.449 Y115.713 E31.54303
G1 X102.04 Y115.121 E31.61103
G1 X101.698 Y114.488 E31.67902
G1 X101.429 Y113.821 E31.74699
G1 X101.236 Y113.128 E31.81497
G1 X101.121 Y112.418 E31.88294
G1 X101.086 Y111.857 E31.93605
G1 X101.077 Y111.371 E31.98199
G1 X101.104 Y110.652 E32.04998
G1 X101.21 Y109.94 E32.11801
G1 X101.395 Y109.245 E32.18597
G1 X101.655 Y108.574 E32.25397
G1 X101.988 Y107.937 E32.3219
G1 X102.39 Y107.34 E32.38992
G1 X102.856 Y106.792 E32.45789
G1 X103.064 Y106.583 E32.48576
G1 X103.284 Y105.898 E32.55375
G1 X103.579 Y105.242 E32.62172
G1 X103.944 Y104.622 E32.68971
G1 X104.377 Y104.047 E32.75773
G0 F4500 X104.719 Y104.185
G1 F1800 X105.209 Y103.686 E32.82382
G1 X105.969 Y103.097 E32.91468
G1 X106.376 Y102.83 E32.96068
G1 X106.982 Y102.48 E33.02681
G1 X107.624 Y102.202 E33.09293
G1 X108.294 Y101.998 E33.15911
G1 X108.982 Y101.873 E33.22519
G1 X109.68 Y101.826 E33.2913
G1 X110.379 Y101.86 E33.35744
G1 X111.07 Y101.973 E33.4236
G1 X111.541 Y102.107 E33.46988
G1 X111.688 Y102.059 E33.48449
G1 X112.374 Y101.918 E33.55067
G1 X113.071 Y101.857 E33.61679
G1 X113.77 Y101.875 E33.68287
G1 X114.463 Y101.974 E33.74902
G1 X115.14 Y102.15 E33.81513
G1 X115.793 Y102.403 E33.8813
G1 X116.54 Y102.785 E33.96059
G1 X117.14 Y103.146 E34.02676
G1 X117.694 Y103.573 E34.09286
G1 X118.196 Y104.061 E34.15902
